src/images/badges/doka-dog-help-50.svg

<svg width="40" height="40" viewBox="0 0 40 40" fill="none" xmlns="http://www.w3.org/2000/svg">
<path d="M39 10C39 5.02944 34.9706 1 30 1L10 1C5.02944 1 1 5.02944 1 10V30C1 34.9706 5.02944 39 10 39H30C34.9706 39 39 34.9706 39 30V10Z" fill="#F498AD"/>
<path d="M4.46619 13.5297V8.90808C4.46619 8.62565 4.62024 8.44592 4.877 8.44592C5.10808 8.44592 5.28781 8.59998 5.28781 8.90808V13.5297C5.28781 15.0702 5.95538 15.6865 7.03375 15.6865C8.13781 15.6865 8.80538 15.0702 8.80538 13.5297V8.90808C8.80538 8.62565 8.95943 8.44592 9.21619 8.44592C9.47294 8.44592 9.627 8.59998 9.627 8.90808V13.5297C9.627 15.3527 8.7797 16.4567 7.03375 16.4567C5.31348 16.4567 4.46619 15.3527 4.46619 13.5297Z" fill="black"/>
<path d="M11.2446 10.9878C11.2446 10.808 11.3729 10.7053 11.527 10.7053C11.6501 10.7053 11.7403 10.7872 11.8632 10.8987C11.8942 10.9268 11.9273 10.9568 11.9635 10.9878L13.4527 12.7337C13.6067 12.8878 13.6581 13.0161 13.6581 13.1959C13.6581 13.3708 13.5852 13.4727 13.463 13.6436L13.4527 13.658L11.9635 15.404C11.8094 15.5837 11.7067 15.6864 11.527 15.6864C11.3473 15.6864 11.2446 15.558 11.2446 15.404C11.2446 15.3013 11.3216 15.1729 11.3986 15.0445L12.7594 13.2215L11.3986 11.3986C11.3779 11.3504 11.3573 11.3058 11.3381 11.2645C11.2858 11.1518 11.2446 11.0629 11.2446 10.9878Z" fill="black"/>
<path d="M13.6324 10.9878C13.6324 10.808 13.7608 10.7053 13.9148 10.7053C14.0379 10.7053 14.1281 10.7872 14.251 10.8987C14.282 10.9267 14.3152 10.9568 14.3513 10.9878L15.8405 12.7337C15.9946 12.8878 16.0459 13.0161 16.0459 13.1959C16.0459 13.3708 15.973 13.4727 15.8508 13.6436L15.8405 13.658L14.3513 15.3526C14.1973 15.5323 14.0946 15.6351 13.9148 15.6351C13.7351 15.6351 13.6324 15.5067 13.6324 15.3526C13.6324 15.2499 13.7094 15.1215 13.7865 14.9932L15.1473 13.1702L13.7865 11.3472C13.7094 11.2188 13.6324 11.0905 13.6324 10.9878Z" fill="black"/>
<path d="M17.8432 15.8662C17.6378 15.8662 17.4838 16.0459 17.4838 16.2257C17.4838 16.5338 17.7919 16.6108 18.1 16.6365C18.9986 16.6365 19.5378 16.0716 19.9743 15.4811C20.4108 16.0716 20.95 16.6365 21.8486 16.6365C22.1824 16.6365 22.4648 16.5338 22.4648 16.2257C22.4648 16.0459 22.3108 15.8662 22.1054 15.8662C22.0697 15.8662 22.0229 15.8717 21.9727 15.8777C21.9148 15.8845 21.8523 15.8919 21.7973 15.8919C21.3865 15.8919 20.873 15.3527 20.5905 14.9419C21.1811 14.3257 21.7973 13.5554 21.7973 12.6824C21.7973 11.6811 21.027 10.9622 19.9743 10.9622C18.9216 10.9622 18.1513 11.6811 18.1513 12.6824C18.1513 13.5297 18.7932 14.3257 19.3581 14.9419C19.0757 15.327 18.5878 15.8919 18.1513 15.8919C18.1128 15.8919 18.0551 15.8855 17.9973 15.8791C17.9396 15.8726 17.8818 15.8662 17.8432 15.8662Z" fill="black"/>
<path d="M26.5472 15.3527C26.5472 15.5324 26.4189 15.6351 26.2648 15.6351C26.1418 15.6351 26.0516 15.5533 25.9286 15.4418C25.8976 15.4137 25.8645 15.3837 25.8283 15.3527L24.3391 13.6068C24.1851 13.4527 24.1337 13.3243 24.1337 13.1446C24.1337 12.97 24.2065 12.8681 24.3283 12.6975L24.3391 12.6824L25.8283 10.9365C25.9824 10.7568 26.0851 10.6541 26.2648 10.6541C26.4445 10.6541 26.5472 10.7824 26.5472 10.9365C26.5472 11.0392 26.4702 11.1676 26.3932 11.2959L25.0324 13.1189L26.3932 14.9419C26.4226 15.0204 26.452 15.0838 26.4771 15.138C26.5178 15.2258 26.5472 15.2892 26.5472 15.3527Z" fill="black"/>
<path d="M28.9351 15.3527C28.9351 15.5324 28.8067 15.6351 28.6526 15.6351C28.5296 15.6351 28.4393 15.5532 28.3164 15.4417C28.2854 15.4137 28.2523 15.3837 28.2162 15.3527L26.727 13.6068C26.5729 13.4527 26.5216 13.3243 26.5216 13.1446C26.5216 12.9698 26.5945 12.8679 26.7166 12.6969L26.727 12.6824L28.2162 10.9365C28.3702 10.7568 28.4729 10.6541 28.6526 10.6541C28.8324 10.6541 28.9351 10.7824 28.9351 10.9365C28.9351 11.0392 28.8581 11.1676 28.781 11.2959L27.4202 13.1189L28.781 14.9419C28.8104 15.0203 28.8398 15.0837 28.865 15.1379C28.9057 15.2257 28.9351 15.2892 28.9351 15.3527Z" fill="black"/>
<path d="M30.3729 8.90808V13.5297C30.3729 15.3527 31.2202 16.4567 32.9405 16.4567C34.6864 16.4567 35.5337 15.3527 35.5337 13.5297V8.90808C35.5337 8.59998 35.3797 8.44592 35.1229 8.44592C34.8662 8.44592 34.7121 8.62565 34.7121 8.90808V13.5297C34.7121 15.0702 34.0445 15.6865 32.9405 15.6865C31.8621 15.6865 31.1945 15.0702 31.1945 13.5297V8.90808C31.1945 8.59998 31.0148 8.44592 30.7837 8.44592C30.527 8.44592 30.3729 8.62565 30.3729 8.90808Z" fill="black"/>
<path fill-rule="evenodd" clip-rule="evenodd" d="M21.5918 29.9365C21.5918 30.8609 21.977 31.4771 22.5932 31.4771C23.2094 31.4771 23.6202 30.8609 23.5945 29.9365C23.5945 29.0122 23.2094 28.396 22.5932 28.396C21.977 28.396 21.5918 28.9865 21.5918 29.9365ZM22.5932 30.3473C22.8484 30.3473 23.0554 30.1519 23.0554 29.9109C23.0554 29.6698 22.8484 29.4744 22.5932 29.4744C22.338 29.4744 22.131 29.6698 22.131 29.9109C22.131 30.1519 22.338 30.3473 22.5932 30.3473Z" fill="black"/>
<path fill-rule="evenodd" clip-rule="evenodd" d="M24.6473 25.8798H16.8162C14.5311 25.9054 12.8108 27.6257 12.8108 29.9108C12.8108 32.1189 14.4027 33.8135 16.5594 33.9419V33.9676H24.4675C26.7784 33.9676 28.5243 32.2217 28.5243 29.9108C28.5243 27.6771 26.8811 25.9568 24.6473 25.8798ZM17.9716 29.4744C18.2026 29.346 18.5108 29.2433 18.8959 29.2433C19.7945 29.2433 20.4364 29.8082 20.4621 30.5784C20.4621 31.4257 19.7945 32.0163 18.8189 32.0163C18.0999 32.0163 17.5351 31.7082 17.2783 31.4257C17.2013 31.3487 17.1243 31.246 17.1243 31.1176C17.1243 30.9379 17.2783 30.8095 17.4324 30.8095C17.5608 30.8095 17.6635 30.8865 17.7405 30.9892C17.9716 31.2717 18.3567 31.4257 18.7932 31.4257C19.3837 31.4257 19.7945 31.0919 19.7945 30.5784C19.7945 30.0392 19.3324 29.7568 18.8959 29.7568C18.5108 29.7568 18.177 29.9109 17.9716 30.0392C17.8178 30.1417 17.7404 30.1933 17.6121 30.1933C17.4581 30.1933 17.304 30.0906 17.304 29.9109C17.304 29.9003 17.3084 29.8852 17.3136 29.8675C17.3209 29.8426 17.3297 29.8125 17.3297 29.7825L17.5864 28.1392C17.6121 27.9595 17.7148 27.8568 17.8945 27.8568H19.9486C20.154 27.8568 20.2824 27.9852 20.2824 28.1649C20.2824 28.3447 20.154 28.473 19.9486 28.473C19.8529 28.473 19.6032 28.4686 19.3105 28.4635C18.8965 28.4562 18.3964 28.4474 18.1256 28.4474L17.9716 29.4744ZM20.95 29.9109C20.95 28.6271 21.5918 27.7798 22.5932 27.7798C23.5945 27.7798 24.2364 28.6271 24.2364 29.9109C24.2364 31.2203 23.5945 32.0676 22.5932 32.0676C21.5918 32.0676 20.95 31.2203 20.95 29.9109Z" fill="black"/>
<path d="M6.03239 21.5149C6.21212 21.5149 6.3405 21.6433 6.41753 21.7716L12.8364 32.5554C12.8878 32.6325 12.9135 32.7095 12.9135 32.8122C12.9135 33.0689 12.7594 33.223 12.5027 33.223C12.3229 33.223 12.1946 33.0946 12.1175 32.9662L5.69861 22.1825C5.64726 22.1054 5.62158 22.0284 5.62158 21.9257C5.62158 21.6689 5.77564 21.5149 6.03239 21.5149Z" fill="black"/>
<path d="M35.3027 21.5405C35.1229 21.5405 34.9945 21.6689 34.9175 21.7973L28.4986 32.5811C28.4472 32.6581 28.4216 32.7608 28.4216 32.8378C28.4216 33.0689 28.5756 33.2486 28.8324 33.2486C29.0121 33.2486 29.1405 33.1203 29.2175 32.9919L35.6364 22.2081C35.6878 22.1311 35.7135 22.0284 35.7135 21.9513C35.7135 21.6946 35.5594 21.5405 35.3027 21.5405Z" fill="black"/>
</svg>

<svg xmlns="http://www.w3.org/2000/svg" width="40" height="40" fill="none"><path fill="#F498AD" d="M39 10a9 9 0 0 0-9-9H10a9 9 0 0 0-9 9v20a9 9 0 0 0 9 9h20a9 9 0 0 0 9-9V10Z"/><path fill="#000" d="M4.466 13.53V8.908c0-.282.154-.462.411-.462.231 0 .41.154.41.462v4.622c0 1.54.668 2.157 1.747 2.157 1.104 0 1.771-.617 1.771-2.157V8.908c0-.282.154-.462.411-.462s.411.154.411.462v4.622c0 1.823-.847 2.927-2.593 2.927-1.72 0-2.568-1.104-2.568-2.927ZM11.245 10.988c0-.18.128-.283.282-.283.123 0 .213.082.336.194l.1.089 1.49 1.746c.154.154.205.282.205.462 0 .175-.073.277-.195.448l-.01.014-1.49 1.746c-.154.18-.256.282-.436.282s-.282-.128-.282-.282c0-.103.077-.231.154-.36l1.36-1.822-1.36-1.823a4.901 4.901 0 0 0-.06-.134c-.053-.113-.094-.202-.094-.277Z"/><path fill="#000" d="M13.632 10.988c0-.18.129-.283.283-.283.123 0 .213.082.336.194l.1.089 1.49 1.746c.154.154.205.282.205.462 0 .175-.073.277-.195.448l-.01.014-1.49 1.695c-.154.18-.256.282-.436.282s-.283-.128-.283-.282c0-.103.077-.232.155-.36l1.36-1.823-1.36-1.823c-.078-.128-.155-.256-.155-.36ZM17.843 15.866c-.205 0-.36.18-.36.36 0 .308.309.385.617.41.899 0 1.438-.564 1.874-1.155.437.59.976 1.156 1.875 1.156.333 0 .616-.103.616-.411 0-.18-.154-.36-.36-.36-.035 0-.082.006-.132.012-.058.006-.12.014-.176.014-.41 0-.924-.54-1.207-.95.591-.616 1.207-1.387 1.207-2.26 0-1-.77-1.72-1.823-1.72-1.052 0-1.823.72-1.823 1.72 0 .848.642 1.644 1.207 2.26-.282.385-.77.95-1.207.95-.038 0-.096-.006-.154-.013a1.618 1.618 0 0 0-.154-.013ZM26.547 15.353c0 .18-.128.282-.282.282-.123 0-.213-.082-.336-.193a4.663 4.663 0 0 0-.1-.09l-1.49-1.745c-.154-.154-.205-.283-.205-.462 0-.175.072-.277.194-.447l.011-.016 1.49-1.745c.153-.18.256-.283.436-.283s.282.128.282.283c0 .102-.077.23-.154.359l-1.36 1.823 1.36 1.823c.03.078.059.142.084.196.04.088.07.151.07.215Z"/><path fill="#000" d="M28.935 15.353c0 .18-.128.282-.282.282-.123 0-.214-.082-.337-.193l-.1-.09-1.489-1.745c-.154-.154-.205-.283-.205-.462 0-.175.073-.277.195-.448l.01-.015 1.49-1.745c.153-.18.256-.283.436-.283s.282.128.282.283c0 .102-.077.23-.154.359l-1.36 1.823 1.36 1.823c.03.078.059.142.084.196.04.088.07.151.07.215ZM30.373 8.908v4.622c0 1.823.847 2.927 2.567 2.927 1.746 0 2.594-1.104 2.594-2.927V8.908c0-.308-.154-.462-.411-.462s-.41.18-.41.462v4.622c0 1.54-.669 2.157-1.773 2.157-1.078 0-1.745-.617-1.745-2.157V8.908c0-.308-.18-.462-.411-.462-.257 0-.411.18-.411.462Z"/><path fill="#000" fill-rule="evenodd" d="M21.592 29.936c0 .925.385 1.541 1.001 1.541.616 0 1.027-.616 1.002-1.54 0-.925-.386-1.541-1.002-1.541s-1.001.59-1.001 1.54Zm1.001.411a.45.45 0 0 0 .462-.436.45.45 0 0 0-.462-.437.45.45 0 0 0-.462.437.45.45 0 0 0 .462.436Z" clip-rule="evenodd"/><path fill="#000" fill-rule="evenodd" d="M24.647 25.88h-7.83c-2.286.025-4.006 1.746-4.006 4.03 0 2.209 1.592 3.903 3.748 4.032v.026h7.909c2.31 0 4.056-1.746 4.056-4.057 0-2.234-1.643-3.954-3.877-4.031Zm-6.675 3.594c.23-.128.539-.23.924-.23.898 0 1.54.564 1.566 1.334 0 .848-.668 1.438-1.643 1.438-.72 0-1.284-.308-1.54-.59-.078-.077-.155-.18-.155-.308 0-.18.154-.308.308-.308.129 0 .232.077.309.18.23.282.616.436 1.052.436.59 0 1.002-.334 1.002-.848 0-.539-.463-.821-.9-.821-.384 0-.718.154-.923.282-.154.103-.232.154-.36.154-.154 0-.308-.102-.308-.282 0-.01.004-.026.01-.044a.308.308 0 0 0 .016-.085l.256-1.643c.026-.18.129-.282.309-.282h2.054c.205 0 .333.128.333.308s-.128.308-.333.308c-.096 0-.346-.004-.639-.01a86.713 86.713 0 0 0-1.184-.016l-.154 1.027Zm2.978.437c0-1.284.642-2.131 1.643-2.131 1.002 0 1.643.847 1.643 2.13 0 1.31-.642 2.158-1.643 2.158s-1.643-.848-1.643-2.157Z" clip-rule="evenodd"/><path fill="#000" d="M6.032 21.515c.18 0 .308.128.386.257l6.418 10.783a.434.434 0 0 1 .078.257c0 .257-.155.411-.411.411-.18 0-.308-.128-.386-.257L5.7 22.182a.434.434 0 0 1-.077-.256c0-.257.154-.411.41-.411ZM35.303 21.54c-.18 0-.308.129-.386.257L28.5 32.581a.495.495 0 0 0-.077.257c0 .23.154.41.41.41.18 0 .308-.128.386-.256l6.418-10.784a.495.495 0 0 0 .078-.257c0-.256-.155-.41-.411-.41Z"/></svg>
